public/icons/tech-stack/nextjs-dark.svg

<svg width="111" height="20" viewBox="0 0 111 20" fill="none" xmlns="http://www.w3.org/2000/svg">
<path d="M93.1236 0.00833156V3.19757H85.454V19.9764H81.6188V3.19777H73.7894V0.00833156H93.1236ZM93.9858 18.0742C94.2559 18.0742 94.4922 18.1611 94.6923 18.335C94.8952 18.5088 94.9963 18.7171 94.9991 18.9597C94.9986 19.1189 94.9491 19.2749 94.856 19.4106C94.7647 19.5445 94.6369 19.6555 94.4844 19.7332C94.3338 19.8137 94.1613 19.8556 93.9858 19.8545C93.7048 19.8545 93.4659 19.7675 93.266 19.5937C93.0659 19.4197 92.9668 19.2091 92.9694 18.9597C92.9671 18.7171 93.0659 18.5088 93.266 18.335C93.4659 18.1611 93.7048 18.0742 93.9858 18.0742ZM17.9759 19.9764L3.83514 4.26808V19.9682H0V0H4.7936L22.659 19.827L22.6592 3.19777L22.6577 0.00833156H41.9916V3.19757H26.4941V8.32826H38.9573V11.5177H26.4941V16.7871H41.9918V19.9764H17.9759ZM54.2827 11.4873L56.796 14.2799L51.646 20H46.6131L54.2827 11.4873ZM51.646 0.0166631L58.1347 7.21862L64.6031 0.0387514L69.6219 0.0319699L60.6474 10.0076L69.6365 19.9847H64.6031L46.6274 0.0166631H51.646ZM100.531 11.4425H102.23V17.294C102.228 17.8317 102.098 18.2914 101.843 18.6784C101.586 19.0649 101.23 19.3602 100.773 19.5685C100.318 19.7743 99.7853 19.8797 99.1798 19.8797C98.6263 19.8797 98.1303 19.7905 97.6885 19.6166C97.2466 19.4426 96.8961 19.1818 96.6387 18.8384C96.3786 18.4953 96.2513 18.0673 96.2513 17.5548H97.9536C97.9562 17.779 98.0132 17.9733 98.1223 18.1361C98.2297 18.2967 98.3867 18.4261 98.5745 18.5088C98.7692 18.596 98.9929 18.6394 99.2446 18.6394C99.5178 18.6394 99.7515 18.5891 99.9412 18.486C100.131 18.3852 100.276 18.2343 100.378 18.033C100.476 17.8338 100.528 17.5868 100.531 17.2938V11.4425ZM109.222 13.7308C109.181 13.3762 108.999 13.0991 108.682 12.9025C108.362 12.7033 107.949 12.6051 107.443 12.6051C107.087 12.6051 106.78 12.6531 106.526 12.7469C106.271 12.843 106.074 12.9711 105.938 13.1336C105.803 13.296 105.736 13.4814 105.73 13.6897C105.73 13.8635 105.777 14.0146 105.868 14.1404C105.962 14.2722 106.089 14.3827 106.24 14.4632C106.403 14.5549 106.577 14.6293 106.759 14.685C106.952 14.7445 107.144 14.7949 107.336 14.8362L108.222 15.0307C108.578 15.104 108.924 15.2022 109.254 15.3281C109.584 15.4517 109.883 15.6097 110.145 15.7995C110.407 15.9894 110.615 16.2182 110.769 16.486C110.922 16.7538 111 17.0673 111 17.4288C111 17.9161 110.86 18.3442 110.576 18.7148C110.293 19.0833 109.885 19.3716 109.35 19.5799C108.817 19.7859 108.173 19.8911 107.414 19.8911C106.681 19.8911 106.042 19.7904 105.504 19.589C104.964 19.3901 104.543 19.0969 104.239 18.7125C103.935 18.3281 103.771 17.859 103.748 17.3076H105.432C105.455 17.5959 105.559 17.8361 105.736 18.0307C105.915 18.2229 106.149 18.3647 106.435 18.4608C106.723 18.5548 107.045 18.6028 107.401 18.6028C107.773 18.6028 108.1 18.5524 108.383 18.454C108.664 18.3556 108.885 18.2184 109.043 18.0398C109.204 17.8634 109.285 17.6553 109.288 17.4174C109.285 17.2 109.212 17.0192 109.072 16.8772C108.929 16.7354 108.731 16.6164 108.479 16.5203C108.225 16.4242 107.929 16.3372 107.591 16.2618L106.515 16.0193C105.738 15.8429 105.122 15.5754 104.673 15.2159C104.221 14.8567 103.997 14.3808 103.997 13.7835C103.997 13.2939 104.148 12.8635 104.452 12.495C104.753 12.1269 105.167 11.8407 105.689 11.6371C106.214 11.4311 106.806 11.3303 107.466 11.3303C108.137 11.3303 108.724 11.4311 109.231 11.6371C109.737 11.8407 110.135 12.1244 110.423 12.4859C110.711 12.8476 110.862 13.2617 110.87 13.7308H109.222Z" fill="black"/>
</svg>

<svg xmlns="http://www.w3.org/2000/svg" width="111" height="20" fill="none" xmlns:v="https://vecta.io/nano"><path d="M93.124.008v3.189h-7.67v16.779h-3.835V3.198h-7.829V.008h19.334zm.862 18.066c.27 0 .506.087.707.261s.304.382.307.625a.8.8 0 0 1-.143.451c-.091.134-.219.245-.372.323s-.323.122-.499.121c-.281 0-.52-.087-.72-.261s-.299-.385-.297-.634a.79.79 0 0 1 .297-.625c.2-.174.439-.261.72-.261zm-76.01 1.902L3.835 4.268v15.7H0V0h4.794l17.865 19.827V3.198L22.658.008h19.334v3.189H26.494v5.131h12.463v3.189H26.494v5.269h15.498v3.189H17.976zm36.307-8.489l2.513 2.793-5.15 5.72h-5.033l7.67-8.513zM51.646.017l6.489 7.202 6.468-7.18 5.019-.007-8.974 9.976 8.989 9.977h-5.033L46.627.017h5.019zm48.885 11.426h1.699v5.852c-.002.538-.132.997-.387 1.384s-.613.682-1.07.89-.988.311-1.593.311c-.553 0-1.049-.089-1.491-.263s-.792-.435-1.05-.778-.387-.771-.387-1.284h1.702c.003.224.06.418.169.581a1.05 1.05 0 0 0 .452.373c.195.087.418.131.67.131.273 0 .507-.05.697-.153s.335-.252.437-.453.15-.446.153-.739v-5.851zm8.691 2.288c-.041-.355-.223-.632-.54-.828s-.733-.297-1.239-.297c-.356 0-.663.048-.917.142s-.452.224-.588.387-.202.348-.208.556a.75.75 0 0 0 .138.451c.094.132.221.242.372.323.163.092.337.166.519.222l.577.151.886.194a6.67 6.67 0 0 1 1.032.297c.33.124.629.282.891.471s.47.419.624.687.231.581.231.943c0 .487-.14.915-.424 1.286s-.691.657-1.226.865-1.177.311-1.936.311c-.733 0-1.372-.101-1.91-.302s-.961-.492-1.265-.876-.468-.853-.491-1.405h1.684c.023.288.127.528.304.723s.413.334.699.43.61.142.966.142c.372 0 .699-.05.982-.149s.502-.236.66-.414a.91.91 0 0 0 .245-.622c-.003-.217-.076-.398-.216-.54s-.341-.261-.593-.357a6.56 6.56 0 0 0-.888-.258l-1.076-.242c-.777-.176-1.393-.444-1.842-.803s-.676-.835-.676-1.432c0-.49.151-.92.455-1.289s.715-.654 1.237-.858 1.117-.307 1.777-.307c.671 0 1.258.101 1.765.307s.904.487 1.192.849a2 2 0 0 1 .447 1.245h-1.648z" fill="#000"/></svg>
